SVG/calendar.svg

<?xml version="1.0" encoding="utf-8"?>
<!-- Generated by IcoMoon.io -->
<!DOCTYPE svg PUBLIC "-//W3C//DTD SVG 1.1//EN" "http://www.w3.org/Graphics/SVG/1.1/DTD/svg11.dtd">
<svg version="1.1" xmlns="http://www.w3.org/2000/svg" xmlns:xlink="http://www.w3.org/1999/xlink" width="13" height="14" viewBox="0 0 13 14">
<path fill="#444444" d="M1 13h2.25v-2.25h-2.25v2.25zM3.75 13h2.5v-2.25h-2.5v2.25zM1 10.25h2.25v-2.5h-2.25v2.5zM3.75 10.25h2.5v-2.5h-2.5v2.5zM1 7.25h2.25v-2.25h-2.25v2.25zM6.75 13h2.5v-2.25h-2.5v2.25zM3.75 7.25h2.5v-2.25h-2.5v2.25zM9.75 13h2.25v-2.25h-2.25v2.25zM6.75 10.25h2.5v-2.5h-2.5v2.5zM4 3.5v-2.25q0-0.102-0.074-0.176t-0.176-0.074h-0.5q-0.102 0-0.176 0.074t-0.074 0.176v2.25q0 0.102 0.074 0.176t0.176 0.074h0.5q0.102 0 0.176-0.074t0.074-0.176zM9.75 10.25h2.25v-2.5h-2.25v2.5zM6.75 7.25h2.5v-2.25h-2.5v2.25zM9.75 7.25h2.25v-2.25h-2.25v2.25zM10 3.5v-2.25q0-0.102-0.074-0.176t-0.176-0.074h-0.5q-0.102 0-0.176 0.074t-0.074 0.176v2.25q0 0.102 0.074 0.176t0.176 0.074h0.5q0.102 0 0.176-0.074t0.074-0.176zM13 3v10q0 0.406-0.297 0.703t-0.703 0.297h-11q-0.406 0-0.703-0.297t-0.297-0.703v-10q0-0.406 0.297-0.703t0.703-0.297h1v-0.75q0-0.516 0.367-0.883t0.883-0.367h0.5q0.516 0 0.883 0.367t0.367 0.883v0.75h3v-0.75q0-0.516 0.367-0.883t0.883-0.367h0.5q0.516 0 0.883 0.367t0.367 0.883v0.75h1q0.406 0 0.703 0.297t0.297 0.703z"></path>
</svg>

<svg xmlns="http://www.w3.org/2000/svg" viewBox="0 0 13 14"><path d="M1 13h2.25v-2.25H1V13zm2.75 0h2.5v-2.25h-2.5V13zM1 10.25h2.25v-2.5H1v2.5zm2.75 0h2.5v-2.5h-2.5v2.5zM1 7.25h2.25V5H1v2.25zM6.75 13h2.5v-2.25h-2.5V13zm-3-5.75h2.5V5h-2.5v2.25zm6 5.75H12v-2.25H9.75V13zm-3-2.75h2.5v-2.5h-2.5v2.5zM4 3.5V1.25q0-.102-.074-.176T3.75 1h-.5q-.102 0-.176.074T3 1.25V3.5q0 .102.074.176t.176.074h.5q.102 0 .176-.074T4 3.5zm5.75 6.75H12v-2.5H9.75v2.5zm-3-3h2.5V5h-2.5v2.25zm3 0H12V5H9.75v2.25zM10 3.5V1.25q0-.102-.074-.176T9.75 1h-.5q-.102 0-.176.074T9 1.25V3.5q0 .102.074.176t.176.074h.5q.102 0 .176-.074T10 3.5zm3-.5v10q0 .406-.297.703T12 14H1q-.406 0-.703-.297T0 13V3q0-.406.297-.703T1 2h1v-.75q0-.516.367-.883T3.25 0h.5q.516 0 .883.367T5 1.25V2h3v-.75q0-.516.367-.883T9.25 0h.5q.516 0 .883.367T11 1.25V2h1q.406 0 .703.297T13 3z" /></svg>
